; HEADER_BLOCK_START
; generated by OrcaSlicer 2.3.0 on 2025-04-08 at 11:41:37
; total layer number: 10
;_GP_TOTAL_LAYER_NUMBER_PLACEHOLDER
; filament_density: 1.04,1.04,1.04,1.04
; filament_diameter: 1.75,1.75,1.75,1.75
; max_z_height: 2.00
; HEADER_BLOCK_END

; THUMBNAIL_BLOCK_START

;
; THUMBNAIL_BLOCK_END

; THUMBNAIL_BLOCK_START

;
; THUMBNAIL_BLOCK_END

; external perimeters extrusion width = 0.42mm
; perimeters extrusion width = 0.45mm
; infill extrusion width = 0.45mm
; solid infill extrusion width = 0.45mm
; top infill extrusion width = 0.42mm
; first layer extrusion width = 0.50mm

; EXECUTABLE_BLOCK_START
EXCLUDE_OBJECT_DEFINE NAME=End_Panel_Template.stl_id_0_copy_0 CENTER=125,125 POLYGON=[[38.4713,34.8681],[39.4153,34.215],[40.3662,33.5717],[41.3237,32.9383],[42.2878,32.315],[43.2583,31.7018],[44.2352,31.0987],[45.2183,30.5059],[46.2076,29.9234],[47.2029,29.3512],[48.2041,28.7894],[49.2111,28.2381],[50.2238,27.6974],[51.2421,27.1673],[52.2658,26.6478],[53.295,26.139],[54.3293,25.641],[55.3689,25.1538],[56.4134,24.6775],[57.4629,24.2121],[58.5172,23.7577],[59.5761,23.3143],[60.6396,22.882],[61.7076,22.4608],[62.7799,22.0508],[63.8565,21.652],[64.9371,21.2645],[66.0217,20.8883],[67.1102,20.5234],[68.2025,20.1699],[69.2984,19.8278],[70.3977,19.4971],[71.5005,19.178],[72.6066,18.8703],[73.7157,18.5743],[74.828,18.2898],[75.9431,18.0169],[77.061,17.7557],[78.1816,17.5062],[79.3047,17.2684],[80.4303,17.0424],[81.5581,16.828],[82.6882,16.6255],[83.8202,16.4348],[84.9542,16.2559],[86.09,16.0888],[87.2275,15.9336],[88.3666,15.7903],[89.5071,15.6589],[90.6488,15.5394],[91.7918,15.4318],[92.9359,15.3361],[94.0808,15.2524],[95.2266,15.1807],[96.3731,15.1209],[97.5201,15.0731],[98.6676,15.0372],[99.8154,15.0133],[100.963,15.0015],[102.111,15.0015],[103.259,15.0136],[104.407,15.0377],[105.555,15.0737],[106.702,15.1217],[107.848,15.1817],[108.994,15.2536],[110.139,15.3375],[111.283,15.4333],[112.426,15.5411],[113.568,15.6608],[114.708,15.7924],[115.847,15.9359],[116.984,16.0912],[118.12,16.2585],[119.254,16.4375],[120.386,16.6284],[121.516,16.8312],[122.644,17.0456],[123.77,17.2719],[124.893,17.5099],[126.013,17.7596],[127.131,18.0209],[128.246,18.294],[129.358,18.5786],[130.468,18.8749],[131.574,19.1826],[132.676,19.502],[133.776,19.8328],[134.871,20.1751],[135.964,20.5287],[137.052,20.8938],[138.137,21.2702],[139.217,21.6579],[140.294,22.0569],[141.366,22.4671],[142.434,22.8884],[143.497,23.3209],[144.556,23.7644],[145.61,24.219],[146.66,24.6845],[147.704,25.161],[148.744,25.6484],[149.778,26.1465],[150.807,26.6555],[151.831,27.1751],[152.849,27.7054],[153.862,28.2463],[154.868,28.7977],[155.87,29.3597],[156.865,29.932],[157.854,30.5147],[158.837,31.1077],[159.814,31.7109],[160.784,32.3243],[161.748,32.9477],[162.706,33.5812],[163.656,34.2247],[164.6,34.878],[165.537,35.5412],[166.468,36.2141],[167.391,36.8966],[168.307,37.5888],[169.215,38.2905],[170.116,39.0016],[171.01,39.7221],[171.896,40.4519],[172.775,41.1909],[173.646,41.939],[174.509,42.6962],[175.364,43.4623],[176.211,44.2373],[177.049,45.0211],[177.88,45.8137],[178.702,46.6148],[179.516,47.4245],[180.322,48.2426],[181.118,49.0692],[181.906,49.9039],[182.686,50.7469],[183.456,51.5979],[184.218,52.4569],[184.971,53.3239],[185.714,54.1986],[186.448,55.0811],[187.173,55.9711],[187.889,56.8687],[188.596,57.7737],[189.292,58.6861],[189.98,59.6056],[190.657,60.5323],[191.325,61.466],[191.984,62.4066],[192.632,63.3541],[193.27,64.3082],[193.899,65.269],[194.517,66.2363],[195.125,67.2099],[195.723,68.1899],[196.311,69.176],[196.889,70.1683],[197.456,71.1665],[198.012,72.1705],[198.558,73.1804],[199.094,74.1958],[199.619,75.2168],[200.133,76.2433],[200.636,77.275],[201.129,78.3119],[201.611,79.354],[202.082,80.4009],[202.542,81.4528],[202.991,82.5094],[203.429,83.5706],[203.856,84.6363],[204.271,85.7065],[204.676,86.7809],[205.069,87.8595],[205.451,88.9421],[205.822,90.0286],[206.181,91.119],[206.529,92.213],[206.865,93.3106],[207.19,94.4117],[207.504,95.5161],[207.806,96.6237],[208.096,97.7344],[208.375,98.8481],[208.642,99.9646],[208.897,101.084],[209.141,102.206],[209.373,103.33],[209.593,104.457],[209.802,105.586],[209.999,106.717],[210.184,107.85],[210.357,108.985],[210.518,110.121],[210.667,111.26],[210.805,112.399],[210.93,113.54],[211.044,114.683],[211.146,115.826],[211.235,116.971],[211.313,118.116],[211.379,119.262],[211.433,120.409],[211.475,121.556],[211.505,122.704],[211.523,123.852],[211.529,125],[211.523,126.148],[211.505,127.296],[211.475,128.444],[211.433,129.591],[211.379,130.738],[211.313,131.884],[211.235,133.029],[211.146,134.174],[211.044,135.317],[210.93,136.46],[210.805,137.601],[210.667,138.74],[210.518,139.879],[210.357,141.015],[210.184,142.15],[209.999,143.283],[209.802,144.414],[209.593,145.543],[209.373,146.67],[209.141,147.794],[208.897,148.916],[208.642,150.035],[208.375,151.152],[208.096,152.266],[207.806,153.376],[207.504,154.484],[207.19,155.588],[206.865,156.689],[206.529,157.787],[206.181,158.881],[205.822,159.971],[205.451,161.058],[205.069,162.141],[204.676,163.219],[204.271,164.294],[203.856,165.364],[203.429,166.429],[202.991,167.491],[202.542,168.547],[202.082,169.599],[201.611,170.646],[201.129,171.688],[200.636,172.725],[200.133,173.757],[199.619,174.783],[199.094,175.804],[198.558,176.82],[198.012,177.829],[197.456,178.834],[196.889,179.832],[196.311,180.824],[195.723,181.81],[195.125,182.79],[194.517,183.764],[193.899,184.731],[193.27,185.692],[192.632,186.646],[191.984,187.593],[191.325,188.534],[190.657,189.468],[189.98,190.394],[189.292,191.314],[188.596,192.226],[187.889,193.131],[187.173,194.029],[186.448,194.919],[185.714,195.801],[184.971,196.676],[184.218,197.543],[183.456,198.402],[182.686,199.253],[181.906,200.096],[181.118,200.931],[180.322,201.757],[179.516,202.575],[178.702,203.385],[177.88,204.186],[177.049,204.979],[176.211,205.763],[175.364,206.538],[174.509,207.304],[173.646,208.061],[172.775,208.809],[171.896,209.548],[171.01,210.278],[170.116,210.998],[169.215,211.71],[168.307,212.411],[167.391,213.103],[166.468,213.786],[165.537,214.459],[164.6,215.122],[163.656,215.775],[162.706,216.419],[161.748,217.052],[160.784,217.676],[159.814,218.289],[158.837,218.892],[157.854,219.485],[156.865,220.068],[155.87,220.64],[154.868,221.202],[153.862,221.754],[152.849,222.295],[151.831,222.825],[150.807,223.345],[149.778,223.853],[148.744,224.352],[147.704,224.839],[146.66,225.315],[145.61,225.781],[144.556,226.236],[143.497,226.679],[142.434,227.112],[141.366,227.533],[140.294,227.943],[139.217,228.342],[138.137,228.73],[137.052,229.106],[135.964,229.471],[134.871,229.825],[133.776,230.167],[132.676,230.498],[131.574,230.817],[130.468,231.125],[129.358,231.421],[128.246,231.706],[127.131,231.979],[126.013,232.24],[124.893,232.49],[123.77,232.728],[122.644,232.954],[121.516,233.169],[120.386,233.372],[119.254,233.562],[118.12,233.742],[116.984,233.909],[115.847,234.064],[114.708,234.208],[113.568,234.339],[112.426,234.459],[111.283,234.567],[110.139,234.663],[108.994,234.746],[107.848,234.818],[106.702,234.878],[105.555,234.926],[104.407,234.962],[103.259,234.986],[102.111,234.998],[100.963,234.999],[99.8154,234.987],[98.6676,234.963],[97.5201,234.927],[96.3731,234.879],[95.2266,234.819],[94.0808,234.748],[92.9359,234.664],[91.7918,234.568],[90.6488,234.461],[89.5071,234.341],[88.3666,234.21],[87.2275,234.066],[86.09,233.911],[84.9542,233.744],[83.8202,233.565],[82.6882,233.374],[81.5581,233.172],[80.4303,232.958],[79.3047,232.732],[78.1816,232.494],[77.061,232.244],[75.9431,231.983],[74.828,231.71],[73.7157,231.426],[72.6066,231.13],[71.5005,230.822],[70.3977,230.503],[69.2984,230.172],[68.2025,229.83],[67.1102,229.477],[66.0217,229.112],[64.9371,228.735],[63.8565,228.348],[62.7799,227.949],[61.7076,227.539],[60.6396,227.118],[59.5761,226.686],[58.5172,226.242],[57.4629,225.788],[56.4134,225.323],[55.3689,224.846],[54.3293,224.359],[53.295,223.861],[52.2658,223.352],[51.2421,222.833],[50.2238,222.303],[49.2111,221.762],[48.2041,221.211],[47.2029,220.649],[46.2076,220.077],[45.2183,219.494],[44.2352,218.901],[43.2583,218.298],[42.2878,217.685],[41.3237,217.062],[40.3662,216.428],[39.4153,215.785],[38.4713,215.132],[38.4713,34.8681]]
M73 P0 R36
;TYPE:Custom
PRINT_START EXTRUDER=265 BED=110 TOOL=0
G90
G21
M83 ; use relative distances for extrusion
; Filament gcode
SET_PRESSURE_ADVANCE ADVANCE=0.02; Override pressure advance value
T0
M106 S0
;LAYER_CHANGE
;Z:0.2
;HEIGHT:0.2
;BEFORE_LAYER_CHANGE
;0.2
G92 E0

;AFTER_LAYER_CHANGE
;0.2
;_SET_FAN_SPEED_CHANGING_LAYER
SET_VELOCITY_LIMIT ACCEL=500 ACCEL_TO_DECEL=250
SET_VELOCITY_LIMIT SQUARE_CORNER_VELOCITY=9
; printing object End_Panel_Template.stl id:0 copy 0
G1 E-1.1 F3900
EXCLUDE_OBJECT_START NAME=End_Panel_Template.stl_id_0_copy_0
G1 X100.606 Y234.741 F21000
G1 Z.6
G1 Z.2
G1 E1.1 F1800
;TYPE:Outer wall
;WIDTH:0.499999
G1 F3000
G1 X97.529 Y234.677 E.10834
G1 X95.241 Y234.57 E.0806
G1 X92.955 Y234.415 E.08062
G1 X90.674 Y234.212 E.08062
G1 X88.397 Y233.961 E.08062
G1 X86.125 Y233.664 E.08062
G1 X83.861 Y233.318 E.08062
G1 X81.604 Y232.926 E.08062
G1 X79.356 Y232.487 E.0806
G1 X76.001 Y231.74 E.12095
G1 X72.672 Y230.888 E.12095
G1 X70.468 Y230.263 E.0806
G1 X68.279 Y229.592 E.0806
G1 X65.02 Y228.499 E.12098
G1 X62.868 Y227.715 E.0806
G1 X60.733 Y226.886 E.0806
G1 X57.562 Y225.559 E.12098
G1 X55.474 Y224.619 E.0806
G1 X53.405 Y223.636 E.08062
G1 X51.356 Y222.61 E.08063
G1 X49.33 Y221.542 E.08062
G1 X47.326 Y220.431 E.08062
G1 X45.346 Y219.279 E.08062
G1 X43.391 Y218.086 E.08062
G1 X41.461 Y216.853 E.0806
G1 X38.721 Y214.999 E.11642
G1 X38.721 Y35 E6.33486
G1 X40.505 Y33.779 E.07607
G1 X42.422 Y32.526 E.08062
G1 X44.365 Y31.312 E.08062
G1 X46.333 Y30.139 E.08062
G1 X48.325 Y29.008 E.08062
G1 X50.34 Y27.919 E.08061
G1 X53.405 Y26.364 E.12095
G1 X56.517 Y24.905 E.12096
G1 X58.615 Y23.988 E.0806
G1 X60.733 Y23.114 E.08062
G1 X62.868 Y22.285 E.08064
G1 X66.103 Y21.125 E.12092
G1 X68.278 Y20.408 E.08062
G1 X70.469 Y19.737 E.08062
G1 X72.672 Y19.112 E.08062
G1 X74.889 Y18.532 E.08063
G1 X77.117 Y17.999 E.08062
G1 X79.355 Y17.513 E.08062
G1 X81.603 Y17.074 E.0806
G1 X84.992 Y16.503 E.12095
G1 X88.397 Y16.038 E.12095
G1 X90.674 Y15.788 E.0806
G1 X92.955 Y15.585 E.08062
G1 X95.241 Y15.43 E.08062
G1 X97.529 Y15.323 E.08062
G1 X99.819 Y15.263 E.08062
G1 X102.11 Y15.252 E.08062
G1 X104.4 Y15.288 E.0806
G1 X107.834 Y15.431 E.12098
G1 X110.119 Y15.587 E.0806
G1 X112.4 Y15.79 E.0806
G1 X115.815 Y16.184 E.12098
G1 X118.082 Y16.506 E.08057
G1 X121.471 Y17.077 E.12097
G1 X123.775 Y17.529 E.0826
G1 X127.074 Y18.264 E.11895
G1 X129.295 Y18.82 E.0806
G1 X131.505 Y19.423 E.0806
G1 X134.796 Y20.414 E.12097
G1 X136.971 Y21.13 E.0806
G1 X139.131 Y21.893 E.0806
G1 X142.341 Y23.121 E.12098
G1 X144.458 Y23.995 E.0806
G1 X146.557 Y24.913 E.08062
G1 X148.636 Y25.874 E.0806
G1 X151.717 Y27.398 E.12098
G1 X153.743 Y28.466 E.08059
G1 X155.745 Y29.577 E.0806
G1 X158.707 Y31.321 E.12098
G1 X160.649 Y32.535 E.0806
G1 X162.567 Y33.789 E.08063
G1 X164.457 Y35.083 E.08062
G1 X166.319 Y36.415 E.0806
G1 X169.062 Y38.488 E.12098
G1 X170.852 Y39.916 E.0806
G1 X172.613 Y41.381 E.0806
G1 X175.196 Y43.648 E.12096
G1 X177.707 Y45.994 E.12095
G1 X179.339 Y47.6 E.08058
G1 X181.724 Y50.075 E.12097
G1 X183.27 Y51.765 E.0806
G1 X184.781 Y53.487 E.08062
G1 X186.255 Y55.24 E.0806
G1 X188.398 Y57.927 E.12098
G1 X189.779 Y59.754 E.0806
G1 X191.121 Y61.61 E.08059
G1 X193.062 Y64.446 E.12096
G1 X194.913 Y67.342 E.12095
G1 X196.096 Y69.303 E.0806
G1 X197.265 Y71.338 E.08262
G1 X198.872 Y74.312 E.11896
G1 X199.909 Y76.354 E.0806
G1 X200.902 Y78.417 E.0806
G1 X202.313 Y81.552 E.12098
G1 X203.197 Y83.665 E.0806
G1 X204.037 Y85.795 E.0806
G1 X205.215 Y89.025 E.12097
G1 X205.943 Y91.196 E.0806
G1 X206.642 Y93.437 E.08262
G1 X207.564 Y96.689 E.11896
G1 X208.132 Y98.908 E.0806
G1 X208.665 Y101.194 E.08262
G1 X209.348 Y104.503 E.11894
G1 X209.937 Y107.889 E.12095
G1 X210.27 Y110.155 E.0806
G1 X210.562 Y112.484 E.08262
G1 X210.896 Y115.848 E.11896
G1 X211.064 Y118.131 E.08058
G1 X211.225 Y121.565 E.12098
G1 X211.273 Y123.855 E.0806
G1 X211.273 Y126.145 E.08062
G1 X211.225 Y128.435 E.0806
G1 X211.064 Y131.868 E.12095
G1 X210.795 Y135.294 E.12096
G1 X210.556 Y137.571 E.08057
G1 X210.109 Y140.98 E.12098
G1 X209.752 Y143.242 E.0806
G1 X209.348 Y145.497 E.08062
G1 X208.897 Y147.742 E.0806
G1 X208.132 Y151.093 E.12098
G1 X207.564 Y153.311 E.08057
G1 X206.626 Y156.618 E.12098
G1 X205.943 Y158.803 E.08058
G1 X204.833 Y162.057 E.12098
G1 X204.038 Y164.204 E.0806
G1 X203.175 Y166.388 E.08264
G1 X202.313 Y168.448 E.07858
G1 X200.902 Y171.583 E.12098
G1 X199.909 Y173.646 E.08059
G1 X198.872 Y175.688 E.0806
G1 X197.237 Y178.712 E.12098
G1 X196.096 Y180.697 E.08059
G1 X194.913 Y182.658 E.0806
G1 X193.061 Y185.554 E.12097
G1 X191.778 Y187.451 E.08058
G1 X189.778 Y190.246 E.12098
G1 X188.398 Y192.073 E.08059
G1 X186.979 Y193.872 E.08063
G1 X185.523 Y195.64 E.08062
G1 X184.031 Y197.378 E.08059
G1 X181.723 Y199.926 E.12098
G1 X180.142 Y201.583 E.0806
G1 X178.527 Y203.206 E.08059
G1 X176.04 Y205.58 E.12098
G1 X174.343 Y207.117 E.0806
G1 X172.613 Y208.619 E.08062
G1 X170.853 Y210.084 E.0806
G1 X168.154 Y212.213 E.12097
G1 X166.32 Y213.584 E.08061
G1 X164.457 Y214.917 E.08062
G1 X162.567 Y216.211 E.08062
G1 X160.649 Y217.465 E.08062
G1 X158.707 Y218.679 E.0806
G1 X155.746 Y220.423 E.12098
G1 X153.743 Y221.533 E.08057
G1 X150.694 Y223.121 E.12098
G1 X148.637 Y224.126 E.08057
G1 X145.509 Y225.552 E.12098
G1 X143.402 Y226.448 E.08059
G1 X141.276 Y227.3 E.0806
G1 X138.053 Y228.494 E.12098
G1 X135.886 Y229.234 E.08057
G1 X132.605 Y230.258 E.12098
G1 X130.402 Y230.884 E.0806
G1 X128.186 Y231.463 E.0806
G1 X124.839 Y232.246 E.12098
G1 X122.597 Y232.709 E.08058
G1 X119.213 Y233.316 E.12098
G1 X116.949 Y233.661 E.08059
G1 X114.678 Y233.959 E.08063
G1 X112.401 Y234.21 E.08062
G1 X110.12 Y234.413 E.0806
G1 X106.689 Y234.629 E.12097
G1 X104.401 Y234.712 E.08058
G1 X100.965 Y234.749 E.12095
G1 X100.654 Y234.742 E.01092
G1 E-1.1 F3900
G1 X100.697 Y234.31 Z.6 F21000
G1 X101.767 Y223.87
G1 X101.768 Y223.434
G1 Z.2
G1 E1.1 F1800
G1 F3000
G1 X98.526 Y223.389 E.11413
G1 X95.266 Y223.235 E.11483
G1 X92.015 Y222.974 E.11478
G1 X88.775 Y222.605 E.11477
G1 X85.549 Y222.129 E.11477
G1 X82.341 Y221.547 E.11475
G1 X79.153 Y220.858 E.1148
G1 X75.99 Y220.064 E.11476
G1 X72.855 Y219.166 E.11477
G1 X69.751 Y218.164 E.11478
G1 X66.683 Y217.061 E.11476
G1 X63.653 Y215.856 E.11477
G1 X60.663 Y214.551 E.11479
G1 X57.72 Y213.149 E.11476
G1 X54.824 Y211.649 E.11475
G1 X52.922 Y210.596 E.07653
G1 X51.091 Y209.53 E.07457
G1 X50.921 Y209.387 E.00781
G1 X50.921 Y40.688 E5.93717
G1 X50.993 Y40.527 E.00621
G1 X53.87 Y38.872 E.1168
G1 X56.749 Y37.341 E.11476
G1 X59.677 Y35.905 E.11478
G1 X62.651 Y34.568 E.11476
G1 X65.668 Y33.33 E.11477
G1 X68.725 Y32.192 E.11478
G1 X71.817 Y31.156 E.11476
G1 X74.941 Y30.224 E.11475
G1 X78.096 Y29.395 E.11479
G1 X81.276 Y28.671 E.11478
G1 X84.478 Y28.053 E.11476
G1 X87.698 Y27.542 E.11477
G1 X89.792 Y27.28 E.07427
G1 X90.934 Y27.137 E.04048
G1 X94.182 Y26.84 E.11478
G1 X97.436 Y26.65 E.11473
G1 X99.609 Y26.584 E.07651
G1 X100.752 Y26.569 E.04025
G1 X103.958 Y26.595 E.11281
G1 X106.131 Y26.673 E.07653
G1 X108.299 Y26.798 E.07644
G1 X110.468 Y26.972 E.07658
G1 X112.631 Y27.193 E.07653
G1 X114.843 Y27.47 E.07845
G1 X118.012 Y27.955 E.11282
G1 X120.152 Y28.343 E.07653
G1 X122.282 Y28.778 E.07651
G1 X124.402 Y29.26 E.07652
G1 X126.564 Y29.802 E.07845
G1 X129.65 Y30.668 E.11281
G1 X131.728 Y31.312 E.07655
G1 X133.79 Y32.002 E.07654
G1 X136.801 Y33.102 E.11282
M73 P1 R36
G1 X138.873 Y33.924 E.07846
G1 X141.869 Y35.211 E.11473
G1 X143.842 Y36.124 E.07653
G1 X145.793 Y37.079 E.07643
G1 X147.725 Y38.079 E.07657
G1 X149.634 Y39.12 E.07651
G1 X152.406 Y40.733 E.11286
G1 X154.301 Y41.906 E.07844
G1 X156.123 Y43.092 E.07652
G1 X157.919 Y44.318 E.07651
G1 X159.687 Y45.583 E.07652
G1 X161.425 Y46.886 E.07644
G1 X163.981 Y48.913 E.11482
G1 X165.646 Y50.312 E.07654
G1 X167.281 Y51.746 E.07654
G1 X169.67 Y53.964 E.11472
G1 X171.223 Y55.487 E.07654
